optimized/24/solid/academic-cap.svg

<svg xmlns="http://www.w3.org/2000/svg" viewBox="0 0 24 24">
  <path d="M11.6998 2.80541C11.8912 2.72176 12.1089 2.72176 12.3003 2.80541C16.0192 4.43023 19.5437 6.41649 22.8295 8.71968C23.0673 8.88636 23.1875 9.17532 23.1381 9.46147C23.0887 9.74762 22.8785 9.97953 22.5986 10.0568C21.9137 10.2459 21.2347 10.4495 20.5618 10.6665C17.8307 11.5473 15.2018 12.6555 12.6972 13.9689L12.6939 13.9706C12.5803 14.0302 12.467 14.0902 12.354 14.1506C12.1331 14.2686 11.8679 14.2686 11.6471 14.1506C11.533 14.0896 11.4186 14.029 11.3039 13.9689C10.0655 13.3195 8.79658 12.7202 7.5 12.1738V11.9501C7.5 11.8187 7.56742 11.7022 7.67173 11.639C9.17685 10.7271 10.7294 9.88577 12.3247 9.11948C12.6981 8.94014 12.8554 8.49207 12.6761 8.1187C12.4967 7.74532 12.0486 7.58803 11.6753 7.76737C10.036 8.55475 8.44086 9.41921 6.89449 10.356C6.44111 10.6307 6.13632 11.0803 6.03607 11.5839C5.18115 11.255 4.31499 10.9487 3.43829 10.666C2.76546 10.449 2.08644 10.2458 1.40154 10.0568C1.12162 9.97952 0.911461 9.74761 0.86204 9.46146C0.812619 9.17531 0.932824 8.88634 1.17061 8.71967C4.45645 6.41648 7.98097 4.43023 11.6998 2.80541Z"/>
  <path d="M13.0609 15.4735C15.4997 14.1704 18.0621 13.0688 20.7258 12.1907C20.8601 13.6055 20.9458 15.0344 20.9813 16.4756C20.9889 16.7848 20.8059 17.067 20.5205 17.1862C17.6693 18.3765 14.9574 19.8342 12.4159 21.5278C12.1641 21.6957 11.836 21.6957 11.5841 21.5278C9.04267 19.8342 6.33073 18.3765 3.4796 17.1862C3.19416 17.067 3.01116 16.7848 3.01878 16.4756C3.05429 15.0343 3.14001 13.6053 3.27427 12.1904C4.19527 12.494 5.10415 12.8243 6 13.1804V14.4508C5.55165 14.7102 5.25 15.1949 5.25 15.7501C5.25 16.2454 5.49008 16.6847 5.86022 16.9578C5.7707 17.3385 5.63822 17.7109 5.46277 18.0676C5.91546 18.2813 6.36429 18.5018 6.8091 18.7291C7.06243 18.2138 7.24612 17.673 7.36014 17.1208C7.88449 16.8871 8.25 16.3613 8.25 15.7501C8.25 15.1949 7.94835 14.7102 7.5 14.4508V13.806C8.6714 14.3178 9.81885 14.8744 10.9402 15.4735C11.6028 15.8276 12.3983 15.8276 13.0609 15.4735Z"/>
  <path d="M4.46222 19.4624C4.88136 19.0433 5.21502 18.5712 5.46277 18.0676C5.91546 18.2813 6.36429 18.5018 6.8091 18.7291C6.49055 19.3769 6.06164 19.9843 5.52288 20.5231C5.22999 20.816 4.75512 20.816 4.46222 20.5231C4.16933 20.2302 4.16933 19.7553 4.46222 19.4624Z"/>
</svg>

<svg xmlns="http://www.w3.org/2000/svg" viewBox="0 0 24 24" fill="currentColor" aria-hidden="true">
  <path d="M11.7 2.805a.75.75 0 01.6 0A60.65 60.65 0 0122.83 8.72a.75.75 0 01-.231 1.337 49.949 49.949 0 00-9.902 3.912l-.003.002-.34.18a.75.75 0 01-.707 0A50.009 50.009 0 007.5 12.174v-.224c0-.131.067-.248.172-.311a54.614 54.614 0 014.653-2.52.75.75 0 00-.65-1.352 56.129 56.129 0 00-4.78 2.589 1.858 1.858 0 00-.859 1.228 49.803 49.803 0 00-4.634-1.527.75.75 0 01-.231-1.337A60.653 60.653 0 0111.7 2.805z"/>
  <path d="M13.06 15.473a48.45 48.45 0 017.666-3.282c.134 1.414.22 2.843.255 4.285a.75.75 0 01-.46.71 47.878 47.878 0 00-8.105 4.342.75.75 0 01-.832 0 47.877 47.877 0 00-8.104-4.342.75.75 0 01-.461-.71c.035-1.442.121-2.87.255-4.286A48.4 48.4 0 016 13.18v1.27a1.5 1.5 0 00-.14 2.508c-.09.38-.222.753-.397 1.11.452.213.901.434 1.346.661a6.729 6.729 0 00.551-1.608 1.5 1.5 0 00.14-2.67v-.645a48.549 48.549 0 013.44 1.668 2.25 2.25 0 002.12 0z"/>
  <path d="M4.462 19.462c.42-.419.753-.89 1-1.394.453.213.902.434 1.347.661a6.743 6.743 0 01-1.286 1.794.75.75 0 11-1.06-1.06z"/>
</svg>
